Suru++-Ubuntu/animations/24/brasero-disc-60.svg

<!-- Created with Inkscape (http://www.inkscape.org/) -->
<svg width="24" height="24" version="1.0" xmlns="http://www.w3.org/2000/svg" xmlns:xlink="http://www.w3.org/1999/xlink">
 <path d="m12 1c-6.0719999 0-11 4.9280001-11 11 0 3.648549 1.7740821 6.893032 4.5117188 8.894531l4.0390622-5.585937c-1.0134-0.751819-1.675781-1.950765-1.675781-3.308594 1e-7 -2.277 1.848-4.125 4.125-4.125zm-1.589844 14.78125c0.251533 0.107223 0.499212 0.202411 0.773438 0.257813-0.268447-0.05497-0.526711-0.153398-0.773438-0.257813zm0.773438 0.257813c0.260861 0.052701 0.540162 0.085937 0.816406 0.085937-0.284625 0-0.54796-0.03097-0.816406-0.08594zm-3.9531252 5.843749c0.311314 0.150419 0.6185443 0.308596 0.9453122 0.429688-0.3329274-0.122732-0.628475-0.276546-0.9453122-0.429688z" style="fill-rule:evenodd;fill:#ffffff;opacity:.5"/>
 <path d="m12 1v6.875c2.277 0 4.125 1.848 4.125 4.125s-1.848 4.125-4.125 4.125c-0.918276 0-1.765431-0.306822-2.449219-0.816406l-4.0390622 5.585937c1.8183481 1.328136 4.0662742 2.105469 6.4882812 2.105469 6.072 0 11-4.928 11-11 0-6.0719999-4.928-11-11-11z" style="fill:#ffffff"/>
</svg>

<?xml version="1.0" encoding="UTF-8" standalone="no"?>
<!-- Created with Inkscape (http://www.inkscape.org/) -->

<svg
   xmlns:dc="http://purl.org/dc/elements/1.1/"
   xmlns:cc="http://creativecommons.org/ns#"
   xmlns:rdf="http://www.w3.org/1999/02/22-rdf-syntax-ns#"
   xmlns:svg="http://www.w3.org/2000/svg"
   xmlns="http://www.w3.org/2000/svg"
   xmlns:xlink="http://www.w3.org/1999/xlink"
   xmlns:sodipodi="http://sodipodi.sourceforge.net/DTD/sodipodi-0.dtd"
   xmlns:inkscape="http://www.inkscape.org/namespaces/inkscape"
   version="1.0"
   width="24"
   height="24"
   id="svg2"
   sodipodi:docname="brasero-disc-60.svg"
   inkscape:version="0.92.2 (unknown)">
  <metadata
     id="metadata14">
    <rdf:RDF>
      <cc:Work
         rdf:about="">
        <dc:format>image/svg+xml</dc:format>
        <dc:type
           rdf:resource="http://purl.org/dc/dcmitype/StillImage" />
        <dc:title></dc:title>
      </cc:Work>
    </rdf:RDF>
  </metadata>
  <sodipodi:namedview
     pagecolor="#ffffff"
     bordercolor="#666666"
     borderopacity="1"
     objecttolerance="10"
     gridtolerance="10"
     guidetolerance="10"
     inkscape:pageopacity="0"
     inkscape:pageshadow="2"
     inkscape:window-width="1669"
     inkscape:window-height="760"
     id="namedview12"
     showgrid="false"
     inkscape:zoom="10.727273"
     inkscape:cx="-5.6398302"
     inkscape:cy="11"
     inkscape:window-x="0"
     inkscape:window-y="34"
     inkscape:window-maximized="0"
     inkscape:current-layer="svg2" />
  <defs
     id="defs4">
    <linearGradient
       id="linearGradient3587-6-5">
      <stop
         id="stop3589-9-2"
         style="stop-color:#e6e6e6;stop-opacity:1"
         offset="0" />
      <stop
         id="stop3591-7-4"
         style="stop-color:#ffffff;stop-opacity:1"
         offset="1" />
    </linearGradient>
    <linearGradient
       x1="15.669166"
       y1="-2.6219723"
       x2="15.669166"
       y2="11.969362"
       id="linearGradient2449"
       xlink:href="#linearGradient3587-6-5"
       gradientUnits="userSpaceOnUse"
       gradientTransform="matrix(0.9302326,0,0,1.2359551,-11.575969,5.1536003)" />
    <linearGradient
       x1="35.007519"
       y1="23.178743"
       x2="35.007519"
       y2="4.9945626"
       id="linearGradient2452"
       xlink:href="#linearGradient3587-6-5"
       gradientUnits="userSpaceOnUse"
       gradientTransform="translate(-25.785715,-3.035714)" />
  </defs>
  <path
     d="M 12,1 C 5.9280001,1 0.9999997,5.9280001 1,12 c 0,3.648549 1.7740821,6.893032 4.5117188,8.894531 L 9.550781,15.308594 C 8.537381,14.556775 7.875,13.357829 7.875,12 7.8750001,9.723 9.723,7.875 12,7.875 Z m -1.589844,14.78125 c 0.251533,0.107223 0.499212,0.202411 0.773438,0.257813 -0.268447,-0.05497 -0.526711,-0.153398 -0.773438,-0.257813 z m 0.773438,0.257813 C 11.444455,16.091764 11.723756,16.125 12,16.125 c -0.284625,0 -0.54796,-0.03097 -0.816406,-0.08594 z M 7.2304688,21.882812 C 7.5417828,22.033231 7.8490131,22.191408 8.175781,22.3125 7.8428536,22.189768 7.547306,22.035954 7.2304688,21.882812 Z"
     id="path3170"
     style="display:inline;overflow:visible;visibility:visible;opacity:0.5;fill:#ffffff;fill-opacity:1;fill-rule:evenodd;stroke:none;stroke-width:1.375;stroke-linecap:butt;stroke-linejoin:miter;stroke-miterlimit:4;stroke-dasharray:none;stroke-dashoffset:0;stroke-opacity:1;marker:none;marker-start:none;marker-mid:none;marker-end:none;enable-background:accumulate"
     inkscape:connector-curvature="0" />
  <path
     d="m 12,1 v 6.875 c 2.277,0 4.125,1.848 4.125,4.125 0,2.277 -1.848,4.125 -4.125,4.125 -0.918276,0 -1.765431,-0.306822 -2.449219,-0.816406 L 5.5117188,20.894531 C 7.3300669,22.222667 9.577993,23 12,23 18.072,23 23,18.072 23,12 23,5.9280001 18.072,1.0000003 12,1 Z"
     id="path3288"
     style="display:inline;overflow:visible;visibility:visible;opacity:1;fill:#ffffff;fill-opacity:1;fill-rule:nonzero;stroke:none;stroke-width:1.375;stroke-linecap:butt;stroke-linejoin:miter;stroke-miterlimit:4;stroke-dasharray:none;stroke-dashoffset:0;stroke-opacity:1;marker:none;marker-start:none;marker-mid:none;marker-end:none;enable-background:accumulate"
     inkscape:connector-curvature="0" />
</svg>
